X: 919
T: Gül Açarken Bahçende
C: Nihal Erkutun
O: Turkey
F: http://compmusic.upf.edu/node/140
N: hicaz--sarki--sofyan--gul_acarken--nihal_erkutun
N: makam= hicaz
N: form= sarki
N: usul= sofyan = 4/4
M: 4/4
L: 1/16
K: C _7/8B ^f ^c 
Q: 1/4=108
%%MIDI tuningsystem comma53
a3^g a=fef =g3f gede  | =f3e fdc2 d3e ffg^g  | 
w:  ARANAĞME  |   | 
a3^g a=fef =g3f gede  | =f3e fdcd e8  | \
w:   |   | 
e2=f2 e2d2 c2d2 e2c2  | 
w:   | 
BcBA BABc A8  | e2=f2 e2d2 c2d2 e2c2  | \
w:   |   | 
BcBA BABc A8  | 
w:   | 
A3B c2B2 A2G2 A4  | d3e =f2e2 dc3 d4  | \
w:  Gül_ a çar ken  bah çem de    |  Hep  ha ya lin  gü lüm ser    | 
e2e2 =f2^g2 a2gf edcB  | 
w:  U zak tan  ba na    | 
A3B c2B2 A2G2 A4  | d3e =f2e2 dc3 d4  | \
w:  Gül_ a çar ken  bah çem de    |  Hep  ha ya lin  gü lüm ser    | 
e2e2 =f2^g2 a8  | g3=f e2d2 e^f3 g4  | 
w:  U zak tan  ba na    |  Öy le  bir  dert li yim  ki   | 
=f2e2 d2e2 f8  | e2d4c2 d2c4B2  | B2A2 B2c2 A2Bc de=f^f  | 
w:  Dal dım  hüs ra na    |  Rüz gâr lar  söy le sin   |  sev gi mi  sa na   SAZ  | 
g3=f e2d2 e^f3 g4  | =f2e2 d2e2 f8  | \
w:  Öy le  bir  dert li yim  ki   |  Dal dım  hüs ra na    | 
e2d4c2 d2c4B2  | B2A2 B2c2 A8  | 
w:  Rüz gâr lar  söy le sin   |  sev gi mi  sa na    | 
a3^g a=fef =g3f gede  | =f3e fdc2 d3e ffg^g  | 
w:  ARANAĞME  |   | 
a3^g a=fef =g3f gede  | =f3e fdcd e8  | \
w:   |   | 
e2=f2 e2d2 c2d2 e2c2  | 
w:   | 
BcBA BABc A8  | e2=f2 e2d2 c2d2 e2c2  | \
w:   |   | 
BcBA BABc A8  | 
w:   | 
A3B c2B2 A2G2 A4  | d3e =f2e2 dc3 d4  | \
w:  Gül_ a çar ken  bah çem de    |  Hep  ha ya lin  gü lüm ser    | 
e2e2 =f2^g2 a2gf edcB  | 
w:  U zak tan  ba na    | 
A3B c2B2 A2G2 A4  | d3e =f2e2 dc3 d4  | \
w:  Gül_ a çar ken  bah çem de    |  Hep  ha ya lin  gü lüm ser    | 
e2e2 =f2^g2 a8  | g3=f e2d2 e^f3 g4  | 
w:  U zak tan  ba na    |  Öy le  bir  dert li yim  ki   | 
=f2e2 d2e2 f8  | e2d4c2 d2c4B2  | B2A2 B2c2 A2Bc de=f^f  | 
w:  Dal dım  hüs ra na    |  Rüz gâr lar  söy le sin   |  sev gi mi  sa na   SAZ  | 
g3=f e2d2 e^f3 g4  | =f2e2 d2e2 f8  | \
w:  Öy le  bir  dert li yim  ki   |  Dal dım  hüs ra na    | 
e2d4c2 d2c4B2  | B2A2 B2c2 A8  | 
w:  Rüz gâr lar  söy le sin   |  sev gi mi  sa na    | 
|


